X:52
T:Sir David Hunter Blair. LIT.052
M:2/4
Q:1/4=140
L:1/8
B:Wm. Litten MS, 1802
Z:Village Music Project 2017 Anne Wride
K:D
f2 A>B | A>B A>B | A>d f2 | g2 e>f | e>f e>f | e>d c>d | e>c A2 :|
|:f>d d2 | a>d' f>a | d>f a>d' | e'e'e'2 | f>d d2 | a>d' f>a | g>b e>g | f>d d2 :|

